X:11149
T:Mooncoin Reel, The
R:reel
Z:id:hn-reel-159
M:C|
K:D
d2AF DFAF|d2ed cAAc|BAGF GABc|d2ed cABc|
d2AF DFAF|d2ed cAAc|BAGF GABc|1 d2ec d2 (3ABc:|2 d2ec d2de||
|:fgag fd~d2|fdad fd~d2|efgf e=c~c2|e=cgc acgc|
fgag fd~d2|fdad fd~d2|g2ef gbag|1 f2ef d2de:|2 f2ef d2 (3ABc||
